public/icons/social/steam.svg

<?xml version="1.0" encoding="UTF-8" standalone="no"?>
<!-- Generator: Adobe Illustrator 18.1.1, SVG Export Plug-In . SVG Version: 6.00 Build 0)  -->

<svg
   id="Layer_1"
   width="32px"
   height="32px"
   enable-background="new 0 0 32 32"
   version="1.1"
   viewBox="0 0 32 32"
   xml:space="preserve"
   sodipodi:docname="steam.svg"
   inkscape:version="1.1.1 (3bf5ae0d25, 2021-09-20)"
   xmlns:inkscape="http://www.inkscape.org/namespaces/inkscape"
   xmlns:sodipodi="http://sodipodi.sourceforge.net/DTD/sodipodi-0.dtd"
   xmlns="http://www.w3.org/2000/svg"
   xmlns:svg="http://www.w3.org/2000/svg"
   xmlns:rdf="http://www.w3.org/1999/02/22-rdf-syntax-ns#"
   xmlns:cc="http://creativecommons.org/ns#"
   xmlns:dc="http://purl.org/dc/elements/1.1/"><defs
     id="defs1042" /><sodipodi:namedview
     id="namedview1040"
     pagecolor="#505050"
     bordercolor="#eeeeee"
     borderopacity="1"
     inkscape:pageshadow="0"
     inkscape:pageopacity="0"
     inkscape:pagecheckerboard="0"
     showgrid="false"
     inkscape:zoom="13.640625"
     inkscape:cx="19.83047"
     inkscape:cy="29.507446"
     inkscape:window-width="1491"
     inkscape:window-height="1111"
     inkscape:window-x="879"
     inkscape:window-y="307"
     inkscape:window-maximized="0"
     inkscape:current-layer="Layer_1" /><metadata
     id="metadata15"><rdf:RDF><cc:Work
         rdf:about=""><dc:format>image/svg+xml</dc:format><dc:type
           rdf:resource="http://purl.org/dc/dcmitype/StillImage" /></cc:Work></rdf:RDF></metadata><path
     id="path6"
     d="M 16 0 C 7.2 0 0 7.2 0 16 C 0 24.8 7.2 32 16 32 C 24.8 32 32 24.8 32 16 C 32 7.2 24.8 0 16 0 z M 15.994141 8 C 20.415141 8 24 11.5817 24 16 C 24 20.4182 20.415141 24 15.994141 24 C 12.384852 24 9.3348902 21.612664 8.3359375 18.332031 L 11.367188 19.582031 C 11.519867 20.263921 11.987184 20.862691 12.677734 21.150391 C 13.807634 21.622151 15.110078 21.084658 15.580078 19.955078 C 15.702388 19.659798 15.760193 19.350026 15.751953 19.041016 L 18.554688 17.039062 C 18.577368 17.039856 18.600377 17.041016 18.623047 17.041016 C 20.300347 17.041016 21.664062 15.674294 21.664062 13.996094 C 21.664062 12.317794 20.300347 10.953125 18.623047 10.953125 C 16.946447 10.953125 15.582031 12.317794 15.582031 13.996094 C 15.582031 14.009554 15.583308 14.022516 15.583984 14.035156 L 13.625 16.878906 C 13.30768 16.864496 12.98942 16.920632 12.6875 17.044922 C 12.5544 17.099172 12.42952 17.165278 12.3125 17.242188 L 8.0117188 15.472656 C 8.010716 15.471163 8.0087857 15.470383 8.0078125 15.46875 C 8.2819125 11.29835 11.751741 8 15.994141 8 z M 18.623047 11.96875 C 19.740347 11.96875 20.650391 12.878534 20.650391 13.996094 C 20.650391 15.114594 19.740367 16.025391 18.623047 16.025391 C 17.506447 16.025391 16.597656 15.114624 16.597656 13.996094 C 16.597656 12.878494 17.506427 11.96875 18.623047 11.96875 z M 18.626953 12.46875 C 17.787293 12.46875 17.105469 13.150778 17.105469 13.992188 C 17.105469 14.833667 17.787273 15.515625 18.626953 15.515625 C 19.467313 15.515625 20.148438 14.833667 20.148438 13.992188 C 20.148437 13.150827 19.467313 12.46875 18.626953 12.46875 z M 13.550781 17.386719 C 13.76476 17.388434 13.981736 17.430378 14.191406 17.517578 C 14.614206 17.693368 14.941384 18.024266 15.115234 18.447266 C 15.289074 18.870276 15.289141 19.336173 15.113281 19.757812 C 14.749511 20.630602 13.745447 21.044931 12.873047 20.681641 C 12.470597 20.514081 12.167467 20.207807 11.992188 19.841797 L 12.980469 20.251953 C 13.623829 20.519763 14.363459 20.215016 14.630859 19.572266 C 14.899119 18.928836 14.594192 18.189675 13.951172 17.921875 L 12.927734 17.498047 C 13.125149 17.423197 13.336803 17.385004 13.550781 17.386719 z "
     style="fill:#444444;fill-opacity:1" /></svg>

<?xml version="1.0" encoding="UTF-8"?>
<!-- Generator: Adobe Illustrator 18.1.1, SVG Export Plug-In . SVG Version: 6.00 Build 0)  -->
<svg id="Layer_1" width="32px" height="32px" enable-background="new 0 0 32 32" version="1.1" viewBox="0 0 32 32" xml:space="preserve" xmlns="http://www.w3.org/2000/svg" xmlns:cc="http://creativecommons.org/ns#" xmlns:dc="http://purl.org/dc/elements/1.1/" xmlns:rdf="http://www.w3.org/1999/02/22-rdf-syntax-ns#"><metadata id="metadata15"><rdf:RDF><cc:Work rdf:about=""><dc:format>image/svg+xml</dc:format><dc:type rdf:resource="http://purl.org/dc/dcmitype/StillImage"/><dc:title/></cc:Work></rdf:RDF></metadata><path id="path6" d="m16 0c-8.8 0-16 7.2-16 16s7.2 16 16 16 16-7.2 16-16-7.2-16-16-16z" fill="#444"/><path id="path19" d="m8.3258 18.301c0.98899 3.2968 4.0483 5.6989 7.6691 5.6989 4.421 0 8.0051-3.5818 8.0051-8 0-4.4183-3.5841-8-8.0051-8-4.2424 0-7.7138 3.2981-7.9879 7.4685 0.51804 0.86936 0.72018 1.407 0.31891 2.8326z" fill="#fff" stroke-width=".068691"/><path id="path21-3" d="m15.583 13.996c0 0.01346 0 0.02692 6.76e-4 0.03956l-1.9589 2.8437c-0.31732-0.01441-0.63574 0.0412-0.93766 0.16549-0.1331 0.05425-0.25781 0.12086-0.37483 0.19777l-4.3014-1.7696c3.6e-5 0-0.09953 1.6364 0.31526 2.856l3.0408 1.2539c0.15268 0.68189 0.62075 1.28 1.3113 1.5677 1.1299 0.47176 2.4326-0.06592 2.9026-1.1955 0.12231-0.29528 0.17934-0.60498 0.1711-0.91399l2.8028-2.0017c0.02268 7.94e-4 0.04604 0.0012 0.06871 0.0012 1.6773 0 3.0406-1.3665 3.0406-3.0447 0-1.6783-1.3633-3.0436-3.0406-3.0436-1.6766 0-3.0406 1.3653-3.0406 3.0436zm-0.47 5.7626c-0.36377 0.87279-1.3674 1.2869-2.2398 0.92361-0.40245-0.16756-0.70631-0.47451-0.88159-0.84052l0.98982 0.40996c0.64336 0.26781 1.3815-0.03708 1.6489-0.67983 0.26826-0.64343-0.03607-1.3823-0.67909-1.6501l-1.0232-0.42369c0.39483-0.1497 0.84366-0.15519 1.263 0.01921 0.4228 0.17579 0.75083 0.50678 0.92468 0.92978 0.17384 0.42301 0.17316 0.88996-0.0027 1.3116m3.5106-3.7342c-1.1166 0-2.0257-0.90987-2.0257-2.0284 0-1.1176 0.90908-2.0277 2.0257-2.0277 1.1173 0 2.0264 0.91014 2.0264 2.0277 0 1.1185-0.90908 2.0284-2.0264 2.0284m-1.5179-2.0315c0-0.84141 0.68164-1.5238 1.5213-1.5238 0.84036 0 1.522 0.68244 1.522 1.5238 0 0.84148-0.68164 1.5233-1.522 1.5233-0.83968 0-1.5213-0.68182-1.5213-1.5233z" fill="#444" stroke-width=".068691"/></svg>
